images/3234192.svg

<?xml version="1.0" encoding="UTF-8"?>
<svg xmlns="http://www.w3.org/2000/svg" xmlns:xlink="http://www.w3.org/1999/xlink" width="300pt" height="300pt" viewBox="0 0 300 300" version="1.1">
<defs>
<g>
<symbol overflow="visible" id="glyph0-0">
<path style="stroke:none;" d="M 0.453125 1.59375 L 0.453125 -6.34375 L 4.953125 -6.34375 L 4.953125 1.59375 Z M 0.953125 1.09375 L 4.453125 1.09375 L 4.453125 -5.84375 L 0.953125 -5.84375 Z M 0.953125 1.09375 "/>
</symbol>
<symbol overflow="visible" id="glyph0-1">
<path style="stroke:none;" d="M 3.546875 -5.953125 C 2.898438 -5.953125 2.382812 -5.710938 2 -5.234375 C 1.625 -4.753906 1.4375 -4.101562 1.4375 -3.28125 C 1.4375 -2.445312 1.625 -1.789062 2 -1.3125 C 2.382812 -0.832031 2.898438 -0.59375 3.546875 -0.59375 C 4.191406 -0.59375 4.703125 -0.832031 5.078125 -1.3125 C 5.453125 -1.789062 5.640625 -2.445312 5.640625 -3.28125 C 5.640625 -4.101562 5.453125 -4.753906 5.078125 -5.234375 C 4.703125 -5.710938 4.191406 -5.953125 3.546875 -5.953125 Z M 3.546875 -6.6875 C 4.460938 -6.6875 5.195312 -6.375 5.75 -5.75 C 6.300781 -5.132812 6.578125 -4.3125 6.578125 -3.28125 C 6.578125 -2.238281 6.300781 -1.410156 5.75 -0.796875 C 5.195312 -0.179688 4.460938 0.125 3.546875 0.125 C 2.617188 0.125 1.878906 -0.179688 1.328125 -0.796875 C 0.773438 -1.410156 0.5 -2.238281 0.5 -3.28125 C 0.5 -4.3125 0.773438 -5.132812 1.328125 -5.75 C 1.878906 -6.375 2.617188 -6.6875 3.546875 -6.6875 Z M 3.546875 -6.6875 "/>
</symbol>
<symbol overflow="visible" id="glyph0-2">
<path style="stroke:none;" d="M 0.890625 -6.5625 L 2.078125 -6.5625 L 4.984375 -1.078125 L 4.984375 -6.5625 L 5.84375 -6.5625 L 5.84375 0 L 4.65625 0 L 1.75 -5.484375 L 1.75 0 L 0.890625 0 Z M 0.890625 -6.5625 "/>
</symbol>
<symbol overflow="visible" id="glyph0-3">
<path style="stroke:none;" d="M 0.890625 -6.5625 L 1.765625 -6.5625 L 1.765625 -3.875 L 5 -3.875 L 5 -6.5625 L 5.890625 -6.5625 L 5.890625 0 L 5 0 L 5 -3.125 L 1.765625 -3.125 L 1.765625 0 L 0.890625 0 Z M 0.890625 -6.5625 "/>
</symbol>
</g>
</defs>
<g id="surface44213">
<rect x="0" y="0" width="300" height="300" style="fill:rgb(100%,100%,100%);fill-opacity:1;stroke:none;"/>
<path style="fill:none;stroke-width:1.2;stroke-linecap:butt;stroke-linejoin:miter;stroke:rgb(0%,0%,0%);stroke-opacity:1;stroke-miterlimit:10;" d="M 35.25 191.777344 L 45.566406 198.910156 "/>
<path style="fill:none;stroke-width:1.2;stroke-linecap:butt;stroke-linejoin:miter;stroke:rgb(100%,0%,0%);stroke-opacity:1;stroke-miterlimit:10;" d="M 45.566406 198.910156 L 55.882812 206.046875 "/>
<path style="fill:none;stroke-width:1.2;stroke-linecap:butt;stroke-linejoin:miter;stroke:rgb(100%,0%,0%);stroke-opacity:1;stroke-miterlimit:10;" d="M 42.445312 167.742188 L 38.847656 179.757812 "/>
<path style="fill:none;stroke-width:1.2;stroke-linecap:butt;stroke-linejoin:miter;stroke:rgb(0%,0%,0%);stroke-opacity:1;stroke-miterlimit:10;" d="M 38.847656 179.757812 L 35.25 191.777344 "/>
<path style="fill:none;stroke-width:1.2;stroke-linecap:butt;stroke-linejoin:miter;stroke:rgb(100%,0%,0%);stroke-opacity:1;stroke-miterlimit:10;" d="M 55.882812 206.046875 L 65.855469 198.4375 "/>
<path style="fill:none;stroke-width:1.2;stroke-linecap:butt;stroke-linejoin:miter;stroke:rgb(0%,0%,0%);stroke-opacity:1;stroke-miterlimit:10;" d="M 65.855469 198.4375 L 75.832031 190.832031 "/>
<path style=" stroke:none;fill-rule:nonzero;fill:rgb(100%,100%,100%);fill-opacity:1;" d="M 51.882812 200.546875 L 59.882812 200.546875 L 59.882812 211.546875 L 51.882812 211.546875 Z M 51.882812 200.546875 "/>
<g style="fill:rgb(100%,0%,0%);fill-opacity:1;">
  <use xlink:href="#glyph0-1" x="51.882812" y="209.209961"/>
</g>
<path style="fill:none;stroke-width:1.2;stroke-linecap:butt;stroke-linejoin:miter;stroke:rgb(0%,0%,0%);stroke-opacity:1;stroke-miterlimit:10;" d="M 75.832031 190.832031 L 67.523438 167.160156 "/>
<path style="fill:none;stroke-width:1.2;stroke-linecap:butt;stroke-linejoin:miter;stroke:rgb(0%,0%,0%);stroke-opacity:1;stroke-miterlimit:10;" d="M 80.570312 186.511719 L 73.925781 167.574219 "/>
<path style="fill:none;stroke-width:1.2;stroke-linecap:butt;stroke-linejoin:miter;stroke:rgb(0%,0%,0%);stroke-opacity:1;stroke-miterlimit:10;" d="M 100.484375 195.476562 L 75.832031 190.832031 "/>
<path style="fill:none;stroke-width:1.2;stroke-linecap:butt;stroke-linejoin:miter;stroke:rgb(0%,0%,0%);stroke-opacity:1;stroke-miterlimit:10;" d="M 67.523438 167.160156 L 54.984375 167.453125 "/>
<path style="fill:none;stroke-width:1.2;stroke-linecap:butt;stroke-linejoin:miter;stroke:rgb(100%,0%,0%);stroke-opacity:1;stroke-miterlimit:10;" d="M 54.984375 167.453125 L 42.445312 167.742188 "/>
<path style="fill:none;stroke-width:1.2;stroke-linecap:butt;stroke-linejoin:miter;stroke:rgb(0%,0%,0%);stroke-opacity:1;stroke-miterlimit:10;" d="M 67.523438 167.160156 L 83.875 148.132812 "/>
<path style=" stroke:none;fill-rule:nonzero;fill:rgb(100%,100%,100%);fill-opacity:1;" d="M 38.445312 162.242188 L 46.445312 162.242188 L 46.445312 173.242188 L 38.445312 173.242188 Z M 38.445312 162.242188 "/>
<g style="fill:rgb(100%,0%,0%);fill-opacity:1;">
  <use xlink:href="#glyph0-1" x="38.445312" y="170.905273"/>
</g>
<path style="fill:none;stroke-width:1.2;stroke-linecap:butt;stroke-linejoin:miter;stroke:rgb(0%,0%,0%);stroke-opacity:1;stroke-miterlimit:10;" d="M 83.875 148.132812 L 108.527344 152.773438 "/>
<path style="fill:none;stroke-width:1.2;stroke-linecap:butt;stroke-linejoin:miter;stroke:rgb(0%,0%,0%);stroke-opacity:1;stroke-miterlimit:10;" d="M 85.246094 154.398438 L 104.96875 158.113281 "/>
<path style="fill:none;stroke-width:1.2;stroke-linecap:butt;stroke-linejoin:miter;stroke:rgb(0%,0%,0%);stroke-opacity:1;stroke-miterlimit:10;" d="M 108.527344 152.773438 L 116.832031 176.449219 "/>
<path style="fill:none;stroke-width:1.2;stroke-linecap:butt;stroke-linejoin:miter;stroke:rgb(0%,0%,0%);stroke-opacity:1;stroke-miterlimit:10;" d="M 108.527344 152.773438 L 124.875 133.746094 "/>
<path style="fill:none;stroke-width:1.2;stroke-linecap:butt;stroke-linejoin:miter;stroke:rgb(0%,0%,0%);stroke-opacity:1;stroke-miterlimit:10;" d="M 116.832031 176.449219 L 100.484375 195.476562 "/>
<path style="fill:none;stroke-width:1.2;stroke-linecap:butt;stroke-linejoin:miter;stroke:rgb(0%,0%,0%);stroke-opacity:1;stroke-miterlimit:10;" d="M 110.71875 174.503906 L 97.640625 189.726562 "/>
<path style="fill:none;stroke-width:1.2;stroke-linecap:butt;stroke-linejoin:miter;stroke:rgb(0%,0%,0%);stroke-opacity:1;stroke-miterlimit:10;" d="M 124.875 133.746094 L 149.527344 138.390625 "/>
<path style="fill:none;stroke-width:1.2;stroke-linecap:butt;stroke-linejoin:miter;stroke:rgb(0%,0%,0%);stroke-opacity:1;stroke-miterlimit:10;" d="M 128.433594 128.410156 L 148.15625 132.125 "/>
<path style="fill:none;stroke-width:1.2;stroke-linecap:butt;stroke-linejoin:miter;stroke:rgb(0%,0%,0%);stroke-opacity:1;stroke-miterlimit:10;" d="M 116.570312 110.074219 L 124.875 133.746094 "/>
<path style="fill:none;stroke-width:1.2;stroke-linecap:butt;stroke-linejoin:miter;stroke:rgb(0%,0%,0%);stroke-opacity:1;stroke-miterlimit:10;" d="M 149.527344 138.390625 L 165.875 119.363281 "/>
<path style="fill:none;stroke-width:1.2;stroke-linecap:butt;stroke-linejoin:miter;stroke:rgb(0%,0%,0%);stroke-opacity:1;stroke-miterlimit:10;" d="M 165.875 119.363281 L 157.570312 95.691406 "/>
<path style="fill:none;stroke-width:1.2;stroke-linecap:butt;stroke-linejoin:miter;stroke:rgb(0%,0%,0%);stroke-opacity:1;stroke-miterlimit:10;" d="M 170.617188 115.039062 L 163.972656 96.101562 "/>
<path style="fill:none;stroke-width:1.2;stroke-linecap:butt;stroke-linejoin:miter;stroke:rgb(0%,0%,0%);stroke-opacity:1;stroke-miterlimit:10;" d="M 190.527344 124.007812 L 165.875 119.363281 "/>
<path style="fill:none;stroke-width:1.2;stroke-linecap:butt;stroke-linejoin:miter;stroke:rgb(0%,0%,0%);stroke-opacity:1;stroke-miterlimit:10;" d="M 157.570312 95.691406 L 132.917969 91.046875 "/>
<path style="fill:none;stroke-width:1.2;stroke-linecap:butt;stroke-linejoin:miter;stroke:rgb(0%,0%,0%);stroke-opacity:1;stroke-miterlimit:10;" d="M 157.570312 95.691406 L 165.746094 86.175781 "/>
<path style="fill:none;stroke-width:1.2;stroke-linecap:butt;stroke-linejoin:miter;stroke:rgb(0%,0%,100%);stroke-opacity:1;stroke-miterlimit:10;" d="M 165.746094 86.175781 L 173.917969 76.660156 "/>
<path style="fill:none;stroke-width:1.2;stroke-linecap:butt;stroke-linejoin:miter;stroke:rgb(0%,0%,0%);stroke-opacity:1;stroke-miterlimit:10;" d="M 132.917969 91.046875 L 116.570312 110.074219 "/>
<path style="fill:none;stroke-width:1.2;stroke-linecap:butt;stroke-linejoin:miter;stroke:rgb(0%,0%,0%);stroke-opacity:1;stroke-miterlimit:10;" d="M 135.761719 96.796875 L 122.683594 112.019531 "/>
<path style="fill:none;stroke-width:1.2;stroke-linecap:butt;stroke-linejoin:miter;stroke:rgb(0%,0%,100%);stroke-opacity:1;stroke-miterlimit:10;" d="M 173.917969 76.660156 L 186.246094 78.984375 "/>
<path style="fill:none;stroke-width:1.2;stroke-linecap:butt;stroke-linejoin:miter;stroke:rgb(0%,0%,0%);stroke-opacity:1;stroke-miterlimit:10;" d="M 186.246094 78.984375 L 198.570312 81.304688 "/>
<path style="fill:none;stroke-width:1.2;stroke-linecap:butt;stroke-linejoin:miter;stroke:rgb(0%,0%,100%);stroke-opacity:1;stroke-miterlimit:10;" d="M 175.292969 82.925781 L 185.152344 84.785156 "/>
<path style="fill:none;stroke-width:1.2;stroke-linecap:butt;stroke-linejoin:miter;stroke:rgb(0%,0%,0%);stroke-opacity:1;stroke-miterlimit:10;" d="M 185.152344 84.785156 L 195.015625 86.640625 "/>
<path style=" stroke:none;fill-rule:nonzero;fill:rgb(100%,100%,100%);fill-opacity:1;" d="M 170.917969 71.160156 L 177.917969 71.160156 L 177.917969 82.160156 L 170.917969 82.160156 Z M 170.917969 71.160156 "/>
<g style="fill:rgb(0%,0%,100%);fill-opacity:1;">
  <use xlink:href="#glyph0-2" x="170.917969" y="79.823242"/>
</g>
<path style="fill:none;stroke-width:1.2;stroke-linecap:butt;stroke-linejoin:miter;stroke:rgb(0%,0%,0%);stroke-opacity:1;stroke-miterlimit:10;" d="M 198.570312 81.304688 L 202.726562 93.140625 "/>
<path style="fill:none;stroke-width:1.2;stroke-linecap:butt;stroke-linejoin:miter;stroke:rgb(0%,0%,100%);stroke-opacity:1;stroke-miterlimit:10;" d="M 202.726562 93.140625 L 206.878906 104.976562 "/>
<path style="fill:none;stroke-width:1.2;stroke-linecap:butt;stroke-linejoin:miter;stroke:rgb(0%,0%,100%);stroke-opacity:1;stroke-miterlimit:10;" d="M 206.878906 104.976562 L 198.703125 114.492188 "/>
<path style="fill:none;stroke-width:1.2;stroke-linecap:butt;stroke-linejoin:miter;stroke:rgb(0%,0%,0%);stroke-opacity:1;stroke-miterlimit:10;" d="M 198.703125 114.492188 L 190.527344 124.007812 "/>
<path style="fill:none;stroke-width:1.2;stroke-linecap:butt;stroke-linejoin:miter;stroke:rgb(0%,0%,100%);stroke-opacity:1;stroke-miterlimit:10;" d="M 200.765625 103.035156 L 194.226562 110.644531 "/>
<path style="fill:none;stroke-width:1.2;stroke-linecap:butt;stroke-linejoin:miter;stroke:rgb(0%,0%,0%);stroke-opacity:1;stroke-miterlimit:10;" d="M 194.226562 110.644531 L 187.6875 118.257812 "/>
<path style=" stroke:none;fill-rule:nonzero;fill:rgb(100%,100%,100%);fill-opacity:1;" d="M 203.878906 99.476562 L 210.878906 99.476562 L 210.878906 110.476562 L 203.878906 110.476562 Z M 203.878906 99.476562 "/>
<g style="fill:rgb(0%,0%,100%);fill-opacity:1;">
  <use xlink:href="#glyph0-2" x="203.878906" y="108.139648"/>
</g>
<path style="fill:none;stroke-width:1.2;stroke-linecap:butt;stroke-linejoin:miter;stroke:rgb(0%,0%,0%);stroke-opacity:1;stroke-miterlimit:10;" d="M 190.527344 124.007812 L 194.679688 135.84375 "/>
<path style="fill:none;stroke-width:1.2;stroke-linecap:butt;stroke-linejoin:miter;stroke:rgb(0%,0%,100%);stroke-opacity:1;stroke-miterlimit:10;" d="M 194.679688 135.84375 L 198.832031 147.679688 "/>
<path style="fill:none;stroke-width:1.2;stroke-linecap:butt;stroke-linejoin:miter;stroke:rgb(0%,0%,100%);stroke-opacity:1;stroke-miterlimit:10;" d="M 198.832031 147.679688 L 211.160156 150 "/>
<path style="fill:none;stroke-width:1.2;stroke-linecap:butt;stroke-linejoin:miter;stroke:rgb(0%,0%,0%);stroke-opacity:1;stroke-miterlimit:10;" d="M 211.160156 150 L 223.488281 152.320312 "/>
<path style=" stroke:none;fill-rule:nonzero;fill:rgb(100%,100%,100%);fill-opacity:1;" d="M 191.832031 142.179688 L 205.832031 142.179688 L 205.832031 153.179688 L 191.832031 153.179688 Z M 191.832031 142.179688 "/>
<g style="fill:rgb(0%,0%,100%);fill-opacity:1;">
  <use xlink:href="#glyph0-2" x="191.832031" y="150.842773"/>
  <use xlink:href="#glyph0-3" x="198.80957" y="150.842773"/>
</g>
<path style="fill:none;stroke-width:1.2;stroke-linecap:butt;stroke-linejoin:miter;stroke:rgb(0%,0%,0%);stroke-opacity:1;stroke-miterlimit:10;" d="M 223.488281 152.320312 L 231.792969 175.992188 "/>
<path style="fill:none;stroke-width:1.2;stroke-linecap:butt;stroke-linejoin:miter;stroke:rgb(0%,0%,0%);stroke-opacity:1;stroke-miterlimit:10;" d="M 231.792969 175.992188 L 215.445312 195.023438 "/>
<path style="fill:none;stroke-width:1.2;stroke-linecap:butt;stroke-linejoin:miter;stroke:rgb(0%,0%,0%);stroke-opacity:1;stroke-miterlimit:10;" d="M 234.632812 181.742188 L 221.554688 196.964844 "/>
<path style="fill:none;stroke-width:1.2;stroke-linecap:butt;stroke-linejoin:miter;stroke:rgb(0%,0%,0%);stroke-opacity:1;stroke-miterlimit:10;" d="M 256.445312 180.636719 L 231.792969 175.992188 "/>
<path style="fill:none;stroke-width:1.2;stroke-linecap:butt;stroke-linejoin:miter;stroke:rgb(0%,0%,0%);stroke-opacity:1;stroke-miterlimit:10;" d="M 215.445312 195.023438 L 223.75 218.695312 "/>
<path style="fill:none;stroke-width:1.2;stroke-linecap:butt;stroke-linejoin:miter;stroke:rgb(0%,0%,0%);stroke-opacity:1;stroke-miterlimit:10;" d="M 223.75 218.695312 L 248.402344 223.339844 "/>
<path style="fill:none;stroke-width:1.2;stroke-linecap:butt;stroke-linejoin:miter;stroke:rgb(0%,0%,0%);stroke-opacity:1;stroke-miterlimit:10;" d="M 227.308594 213.359375 L 247.027344 217.074219 "/>
<path style="fill:none;stroke-width:1.2;stroke-linecap:butt;stroke-linejoin:miter;stroke:rgb(0%,0%,0%);stroke-opacity:1;stroke-miterlimit:10;" d="M 248.402344 223.339844 L 264.75 204.308594 "/>
<path style="fill:none;stroke-width:1.2;stroke-linecap:butt;stroke-linejoin:miter;stroke:rgb(0%,0%,0%);stroke-opacity:1;stroke-miterlimit:10;" d="M 264.75 204.308594 L 256.445312 180.636719 "/>
<path style="fill:none;stroke-width:1.2;stroke-linecap:butt;stroke-linejoin:miter;stroke:rgb(0%,0%,0%);stroke-opacity:1;stroke-miterlimit:10;" d="M 258.347656 203.898438 L 251.707031 184.960938 "/>
</g>
</svg>

<svg xmlns="http://www.w3.org/2000/svg" xmlns:xlink="http://www.w3.org/1999/xlink" width="300pt" height="300pt" viewBox="0 0 300 300"><defs><symbol overflow="visible"><path d="M.453 1.594v-7.938h4.5v7.938zm.5-.5h3.5v-6.938h-3.5zm0 0"/></symbol><symbol overflow="visible" id="a"><path d="M3.547-5.953c-.65 0-1.164.242-1.547.72-.375.48-.563 1.13-.563 1.952 0 .835.188 1.49.563 1.967.383.48.898.72 1.547.72.644 0 1.156-.24 1.53-.72.376-.476.564-1.132.564-1.968 0-.822-.187-1.474-.562-1.954-.375-.477-.887-.72-1.53-.72zm0-.734c.914 0 1.648.312 2.203.937.55.617.828 1.438.828 2.47 0 1.042-.277 1.87-.828 2.483-.555.617-1.29.922-2.203.922-.93 0-1.668-.305-2.22-.922C.774-1.41.5-2.237.5-3.28c0-1.033.273-1.853.828-2.47.55-.625 1.29-.938 2.22-.938zm0 0"/></symbol><symbol overflow="visible" id="b"><path d="M.89-6.563H2.08l2.906 5.485v-5.484h.86V0H4.656L1.75-5.484V0H.89zm0 0"/></symbol><symbol overflow="visible" id="c"><path d="M.89-6.563h.876v2.688H5v-2.688h.89V0H5v-3.125H1.766V0H.89zm0 0"/></symbol></defs><g><path fill="#fff" d="M0 0h300v300H0z"/><path d="M35.25 191.777l10.316 7.133" stroke-width="1.2" stroke="#000" stroke-miterlimit="10" fill="none"/><path d="M45.566 198.91l10.317 7.137M42.445 167.742l-3.597 12.016" stroke-width="1.2" stroke="#f00" stroke-miterlimit="10" fill="none"/><path d="M38.848 179.758l-3.598 12.02" stroke-width="1.2" stroke="#000" stroke-miterlimit="10" fill="none"/><path d="M55.883 206.047l9.972-7.61" stroke-width="1.2" stroke="#f00" stroke-miterlimit="10" fill="none"/><path d="M65.855 198.438l9.977-7.606" stroke-width="1.2" stroke="#000" stroke-miterlimit="10" fill="none"/><path d="M51.883 200.547h8v11h-8zm0 0" fill="#fff"/><use xlink:href="#a" x="51.883" y="209.21" fill="#f00"/><path d="M75.832 190.832l-8.31-23.672M80.57 186.512l-6.644-18.938M100.484 195.477l-24.652-4.645M67.523 167.16l-12.54.293" stroke-width="1.2" stroke="#000" stroke-miterlimit="10" fill="none"/><path d="M54.984 167.453l-12.54.29" stroke-width="1.2" stroke="#f00" stroke-miterlimit="10" fill="none"/><path d="M67.523 167.16l16.352-19.027" stroke-width="1.2" stroke="#000" stroke-miterlimit="10" fill="none"/><path d="M38.445 162.242h8v11h-8zm0 0" fill="#fff"/><use xlink:href="#a" x="38.445" y="170.905" fill="#f00"/><path d="M83.875 148.133l24.652 4.64M85.246 154.398l19.723 3.715M108.527 152.773l8.305 23.676M108.527 152.773l16.348-19.027M116.832 176.45l-16.348 19.027M110.72 174.504l-13.08 15.223M124.875 133.746l24.652 4.645M128.434 128.41l19.722 3.715M116.57 110.074l8.305 23.672M149.527 138.39l16.348-19.027M165.875 119.363L157.57 95.69M170.617 115.04L163.973 96.1M190.527 124.008l-24.652-4.645M157.57 95.69l-24.652-4.643M157.57 95.69l8.176-9.514" stroke-width="1.2" stroke="#000" stroke-miterlimit="10" fill="none"/><path d="M165.746 86.176l8.172-9.516" stroke-width="1.2" stroke="#00f" stroke-miterlimit="10" fill="none"/><path d="M132.918 91.047l-16.348 19.027M135.762 96.797l-13.078 15.223" stroke-width="1.2" stroke="#000" stroke-miterlimit="10" fill="none"/><path d="M173.918 76.66l12.328 2.324" stroke-width="1.2" stroke="#00f" stroke-miterlimit="10" fill="none"/><path d="M186.246 78.984l12.324 2.32" stroke-width="1.2" stroke="#000" stroke-miterlimit="10" fill="none"/><path d="M175.293 82.926l9.86 1.86" stroke-width="1.2" stroke="#00f" stroke-miterlimit="10" fill="none"/><path d="M185.152 84.785l9.864 1.856" stroke-width="1.2" stroke="#000" stroke-miterlimit="10" fill="none"/><path d="M170.918 71.16h7v11h-7zm0 0" fill="#fff"/><use xlink:href="#b" x="170.918" y="79.823" fill="#00f"/><path d="M198.57 81.305l4.157 11.836" stroke-width="1.2" stroke="#000" stroke-miterlimit="10" fill="none"/><path d="M202.727 93.14l4.152 11.837M206.88 104.977l-8.177 9.515" stroke-width="1.2" stroke="#00f" stroke-miterlimit="10" fill="none"/><path d="M198.703 114.492l-8.176 9.516" stroke-width="1.2" stroke="#000" stroke-miterlimit="10" fill="none"/><path d="M200.766 103.035l-6.54 7.61" stroke-width="1.2" stroke="#00f" stroke-miterlimit="10" fill="none"/><path d="M194.227 110.645l-6.54 7.613" stroke-width="1.2" stroke="#000" stroke-miterlimit="10" fill="none"/><path d="M203.88 99.477h7v11h-7zm0 0" fill="#fff"/><use xlink:href="#b" x="203.879" y="108.14" fill="#00f"/><path d="M190.527 124.008l4.153 11.836" stroke-width="1.2" stroke="#000" stroke-miterlimit="10" fill="none"/><path d="M194.68 135.844l4.152 11.836M198.832 147.68L211.16 150" stroke-width="1.2" stroke="#00f" stroke-miterlimit="10" fill="none"/><path d="M211.16 150l12.328 2.32" stroke-width="1.2" stroke="#000" stroke-miterlimit="10" fill="none"/><path d="M191.832 142.18h14v11h-14zm0 0" fill="#fff"/><g fill="#00f"><use xlink:href="#b" x="191.832" y="150.843"/><use xlink:href="#c" x="198.81" y="150.843"/></g><path d="M223.488 152.32l8.305 23.672M231.793 175.992l-16.348 19.03M234.633 181.742l-13.078 15.223M256.445 180.637l-24.652-4.645M215.445 195.023l8.305 23.672M223.75 218.695l24.652 4.645M227.31 213.36l19.717 3.714M248.402 223.34l16.348-19.03M264.75 204.31l-8.305-23.673M258.348 203.898l-6.64-18.937" stroke-width="1.2" stroke="#000" stroke-miterlimit="10" fill="none"/></g></svg>
